; generated by Slic3r 1.3.0 on 2025-04-18 at 21:48:46

; external perimeters extrusion width = 0.55mm (4.37mm^3/s)
; perimeters extrusion width = 0.70mm (11.44mm^3/s)
; infill extrusion width = 0.63mm (13.45mm^3/s)
; solid infill extrusion width = 0.70mm (3.81mm^3/s)
; top infill extrusion width = 0.70mm (2.86mm^3/s)
; support material extrusion width = 0.55mm (8.74mm^3/s)

M107
M104 S200 ; set temperature
G28 ; home all axes
G1 Z5 F5000 ; lift nozzle

; Filament gcode

M109 S200 ; set temperature and wait for it to be reached
G21 ; set units to millimeters
G90 ; use absolute coordinates
M82 ; use absolute distances for extrusion
G92 E0
G1 Z0.350 F7800.000
G1 E-2.00000 F2400.00000
G92 E0
G1 X58.176 Y84.274 F7800.000
G1 E2.00000 F2400.00000
G1 F1800
G1 X60.419 Y83.465 E2.07376
G1 X66.418 Y82.465 E2.26196
G1 X67.089 Y82.388 E2.28284
G1 X85.834 Y81.201 E2.86400
G1 X86.252 Y81.188 E2.87696
G1 X113.748 Y81.188 E3.72770
G1 X114.166 Y81.201 E3.74067
G1 X132.911 Y82.388 E4.32182
G1 X133.582 Y82.465 E4.34270
G1 X139.581 Y83.465 E4.53090
G1 X141.744 Y84.228 E4.60186
G1 X143.517 Y85.683 E4.67282
G1 X144.688 Y87.655 E4.74379
G1 X145.117 Y90.000 E4.81755
G1 X145.117 Y110.000 E5.43638
G1 X144.720 Y112.259 E5.50734
G1 X143.577 Y114.247 E5.57830
G1 X141.824 Y115.726 E5.64926
G1 X139.581 Y116.535 E5.72303
G1 X133.582 Y117.535 E5.91122
G1 X132.911 Y117.612 E5.93210
G1 X114.166 Y118.799 E6.51326
G1 X113.748 Y118.812 E6.52623
G1 X86.103 Y118.812 E7.38157
G1 X85.681 Y118.799 E7.39464
G1 X67.085 Y117.611 E7.97120
G1 X66.418 Y117.535 E7.99197
G1 X60.419 Y116.535 E8.18017
G1 X58.256 Y115.772 E8.25113
G1 X56.483 Y114.317 E8.32209
G1 X55.312 Y112.345 E8.39306
G1 X54.883 Y110.000 E8.46682
G1 X54.883 Y90.000 E9.08565
G1 X55.280 Y87.741 E9.15661
G1 X56.423 Y85.753 E9.22757
G1 X58.119 Y84.322 E9.29621
G1 E7.29621 F2400.00000
G92 E0
G1 X128.975 Y104.321 F7800.000
G1 E2.00000 F2400.00000
G1 F1800
G1 X127.970 Y104.073 E2.03203
G1 X127.028 Y103.582 E2.06490
G1 X126.242 Y102.886 E2.09739
G1 X125.646 Y102.023 E2.12985
G1 X125.274 Y101.042 E2.16232
G1 X125.147 Y100.000 E2.19479
G1 X125.274 Y98.958 E2.22725
G1 X125.646 Y97.977 E2.25972
G1 X126.242 Y97.114 E2.29219
G1 X127.027 Y96.418 E2.32465
G1 X127.957 Y95.930 E2.35712
G1 X128.975 Y95.679 E2.38958
G1 X130.025 Y95.679 E2.42205
G1 X131.043 Y95.930 E2.45452
G1 X131.973 Y96.418 E2.48698
G1 X132.758 Y97.114 E2.51945
G1 X133.354 Y97.977 E2.55192
G1 X133.726 Y98.958 E2.58438
G1 X133.851 Y99.986 E2.61641
G1 X133.726 Y101.041 E2.64929
G1 X133.354 Y102.023 E2.68177
G1 X132.758 Y102.886 E2.71424
G1 X131.973 Y103.582 E2.74670
G1 X131.043 Y104.070 E2.77917
G1 X130.025 Y104.321 E2.81164
G1 X129.050 Y104.321 E2.84178
G1 X128.975 Y104.321 F7800.000
G1 E0.84178 F2400.00000
G92 E0
G1 X125.591 Y103.979 F7800.000
G1 E2.00000 F2400.00000
G1 F1800
G1 X126.314 Y104.620 E2.02989
G1 X127.526 Y105.251 E2.07215
G1 X128.824 Y105.571 E2.11351
G1 X130.176 Y105.571 E2.15537
G1 X131.490 Y105.247 E2.19722
G1 X132.688 Y104.618 E2.23908
G1 X133.700 Y103.721 E2.28094
G1 X134.469 Y102.608 E2.32280
G1 X134.949 Y101.340 E2.36474
G1 X135.110 Y99.984 E2.40700
G1 X134.948 Y98.657 E2.44836
G1 X134.469 Y97.392 E2.49021
G1 X133.700 Y96.279 E2.53207
G1 X132.688 Y95.382 E2.57393
G1 X131.490 Y94.753 E2.61578
G1 X130.176 Y94.429 E2.65764
G1 X128.824 Y94.429 E2.69950
G1 X127.510 Y94.753 E2.74136
G1 X126.312 Y95.382 E2.78321
G1 X125.591 Y96.021 E2.81302
G1 X125.591 Y90.600 E2.98075
G1 X132.054 Y90.600 E3.18071
G1 X132.744 Y91.010 E3.20556
G1 X134.086 Y91.458 E3.24934
G1 X135.407 Y91.600 E3.29044
G1 X136.892 Y91.600 E3.33640
G1 X136.892 Y108.400 E3.85623
G1 X135.407 Y108.400 E3.90219
G1 X134.086 Y108.542 E3.94328
G1 X132.744 Y108.990 E3.98705
G1 X132.053 Y109.400 E4.01192
G1 X125.591 Y109.400 E4.21187
G1 X125.591 Y104.054 E4.37728
G1 X124.966 Y102.602 F7800.000
G1 F1800
G1 X125.230 Y102.520 E4.38582
G1 X125.771 Y103.304 E4.41529
G1 X126.671 Y104.101 E4.45251
G1 X127.748 Y104.662 E4.49007
G1 X128.899 Y104.946 E4.52677
G1 X130.101 Y104.946 E4.56393
G1 X131.267 Y104.658 E4.60109
G1 X132.330 Y104.100 E4.63825
G1 X133.229 Y103.304 E4.67541
G1 X133.911 Y102.315 E4.71258
G1 X134.338 Y101.191 E4.74979
G1 X134.480 Y99.985 E4.78736
G1 X134.337 Y98.808 E4.82405
G1 X133.911 Y97.685 E4.86121
G1 X133.229 Y96.696 E4.89837
G1 X132.330 Y95.900 E4.93553
G1 X131.267 Y95.342 E4.97270
G1 X130.101 Y95.054 E5.00986
G1 X128.899 Y95.054 E5.04702
G1 X127.733 Y95.342 E5.08418
G1 X126.670 Y95.900 E5.12134
G1 X125.771 Y96.696 E5.15850
G1 X125.230 Y97.480 E5.18798
G1 X124.966 Y97.398 E5.19652
G1 X124.966 Y89.975 E5.42621
G1 X132.225 Y89.975 E5.65082
G1 X133.006 Y90.439 E5.67890
G1 X134.220 Y90.843 E5.71851
G1 X135.441 Y90.975 E5.75649
G1 X137.517 Y90.975 E5.82075
G1 X137.517 Y109.025 E6.37925
G1 X135.441 Y109.025 E6.44350
G1 X134.220 Y109.157 E6.48148
G1 X133.006 Y109.561 E6.52109
G1 X132.225 Y110.025 E6.54919
G1 X124.966 Y110.025 E6.77378
G1 X124.966 Y102.677 E7.00115
G1 E5.00115 F2400.00000
G92 E0
G1 X124.341 Y110.650 F7800.000
G1 E2.00000 F2400.00000
G1 F1800
G1 X124.341 Y89.350 E2.65905
G1 X132.397 Y89.350 E2.90831
G1 X133.267 Y89.867 E2.93962
G1 X134.354 Y90.229 E2.97507
G1 X135.474 Y90.350 E3.00993
G1 X138.142 Y90.350 E3.09248
G1 X138.142 Y109.650 E3.68965
G1 X135.474 Y109.650 E3.77220
G1 X134.354 Y109.771 E3.80706
G1 X133.267 Y110.133 E3.84251
G1 X132.396 Y110.650 E3.87384
G1 X124.416 Y110.650 E4.12076
G1 X124.583 Y110.212 F7800.000
G1 E2.12076 F2400.00000
G92 E0
G1 X128.817 Y109.018 F7800.000
G1 E2.00000 F2400.00000
G1 F1800
G1 X132.561 Y105.275 E2.16435
G1 X131.956 Y105.592 E2.18554
G1 X131.160 Y105.789 E2.21098
G1 X127.931 Y109.018 E2.35280
G1 X127.044 Y109.018 E2.38033
G1 X130.110 Y105.952 E2.51494
G1 X129.223 Y105.952 E2.54247
G1 X126.157 Y109.018 E2.67708
G1 X125.973 Y109.018 E2.68280
G1 X125.973 Y108.316 E2.70461
G1 X128.466 Y105.823 E2.81406
G1 X127.754 Y105.648 E2.83681
G1 X125.973 Y107.429 E2.91502
G1 X125.973 Y106.542 E2.94255
G1 X127.134 Y105.382 E2.99351
G1 X126.551 Y105.078 E3.01392
G1 X125.973 Y105.656 E3.03928
G1 X125.973 Y105.516 E3.04360
G1 X126.065 Y105.564 E3.04681
G1 E1.04681 F2400.00000
G92 E0
G1 X136.024 Y108.018 F7800.000
G1 E2.00000 F2400.00000
G1 F1800
G1 X136.511 Y107.532 E2.02135
G1 X136.511 Y106.645 E2.04888
G1 X135.138 Y108.018 E2.10916
G1 X134.145 Y108.125 E2.14016
G1 X136.511 Y105.759 E2.24403
G1 X136.511 Y104.872 E2.27156
G1 X132.962 Y108.421 E2.42737
G1 X132.240 Y108.661 E2.45099
G1 X131.639 Y109.018 E2.47271
G1 X131.478 Y109.018 E2.47771
G1 X136.511 Y103.985 E2.69870
G1 X136.511 Y103.099 E2.72623
G1 X130.591 Y109.018 E2.98615
G1 X129.704 Y109.018 E3.01368
G1 X136.511 Y102.212 E3.31253
G1 X136.511 Y101.325 E3.34006
G1 X134.839 Y102.997 E3.41348
G1 X135.318 Y101.733 E3.45545
G1 X135.332 Y101.617 E3.45907
G1 X136.511 Y100.438 E3.51083
G1 X136.511 Y99.552 E3.53836
G1 X135.450 Y100.612 E3.58492
G1 X135.496 Y100.226 E3.59699
G1 X135.437 Y99.739 E3.61222
G1 X136.511 Y98.665 E3.65937
G1 X136.511 Y97.778 E3.68690
G1 X135.341 Y98.948 E3.73827
G1 X135.317 Y98.749 E3.74448
G1 X135.134 Y98.268 E3.76047
G1 X136.511 Y96.891 E3.82091
G1 X136.511 Y96.005 E3.84844
G1 X134.890 Y97.625 E3.91958
G1 X134.783 Y97.343 E3.92896
G1 X134.580 Y97.049 E3.94006
G1 X136.511 Y95.118 E4.02482
G1 X136.511 Y94.231 E4.05235
G1 X134.218 Y96.524 E4.15302
G1 X133.928 Y96.104 E4.16884
G1 X133.834 Y96.021 E4.17275
G1 X136.511 Y93.344 E4.29027
G1 X136.511 Y92.458 E4.31780
G1 X133.364 Y95.604 E4.45595
G1 X132.894 Y95.188 E4.47546
G1 X136.100 Y91.982 E4.61623
G1 X135.617 Y91.982 E4.63124
G1 X135.252 Y91.942 E4.64261
G1 X132.334 Y94.861 E4.77075
G1 X131.752 Y94.556 E4.79114
G1 X134.452 Y91.856 E4.90967
G1 X134.196 Y91.829 E4.91768
G1 X133.744 Y91.678 E4.93247
G1 X131.104 Y94.317 E5.04836
G1 X130.393 Y94.142 E5.07111
G1 X133.079 Y91.456 E5.18904
G1 X132.726 Y91.339 E5.20058
G1 X132.465 Y91.183 E5.21001
G1 X129.600 Y94.048 E5.33577
G1 X128.714 Y94.048 E5.36330
G1 X131.780 Y90.982 E5.49791
G1 X130.893 Y90.982 E5.52544
G1 X127.605 Y94.269 E5.66979
G1 X127.044 Y94.408 E5.68774
G1 X126.068 Y94.920 E5.72196
G1 X130.006 Y90.982 E5.89487
G1 X129.119 Y90.982 E5.92240
G1 X125.973 Y94.128 E6.06054
G1 X125.973 Y93.241 E6.08807
G1 X128.233 Y90.982 E6.18729
G1 X127.346 Y90.982 E6.21482
G1 X125.973 Y92.355 E6.27510
G1 X125.973 Y91.468 E6.30263
G1 X126.459 Y90.982 E6.32398
G1 E4.32398 F2400.00000
G92 E0
G1 X124.982 Y102.078 F7800.000
G1 E2.00000 F2400.00000
G1 F1800
G1 X125.015 Y102.259 E2.00488
G1 X124.982 Y102.078 F7800.000
G1 F1800
G1 X124.916 Y101.717 E2.01291
G1 F1800
G1 X124.849 Y101.355 E2.01919
G1 F1800
G1 X124.812 Y101.136 E2.02195
G1 F1800
G1 X124.766 Y100.386 E2.02921
G1 F1800
G1 X124.744 Y99.989 E2.03126
G1 F1800
G1 X124.789 Y99.239 E2.03852
G1 F1800
G1 X124.816 Y98.825 E2.04365
G1 F1800
G1 X124.883 Y98.464 E2.04994
G1 F1800
G1 X124.949 Y98.102 E2.05796
G1 F1800
G1 X125.015 Y97.741 E2.06773
G1 E0.06773 F2400.00000
G92 E0
G1 X74.726 Y101.042 F7800.000
G1 E2.00000 F2400.00000
G1 F1800
G1 X74.354 Y102.023 E2.03247
G1 X73.758 Y102.886 E2.06493
G1 X72.973 Y103.582 E2.09740
G1 X72.043 Y104.070 E2.12987
G1 X71.025 Y104.321 E2.16233
G1 X69.975 Y104.321 E2.19480
G1 X68.970 Y104.073 E2.22683
G1 X68.028 Y103.582 E2.25970
G1 X67.242 Y102.886 E2.29219
G1 X66.646 Y102.023 E2.32465
G1 X66.274 Y101.042 E2.35712
G1 X66.149 Y100.014 E2.38915
G1 X66.274 Y98.959 E2.42202
G1 X66.646 Y97.977 E2.45451
G1 X67.242 Y97.114 E2.48697
G1 X68.027 Y96.418 E2.51944
G1 X68.957 Y95.930 E2.55190
G1 X69.975 Y95.679 E2.58437
G1 X71.025 Y95.679 E2.61684
G1 X72.043 Y95.930 E2.64930
G1 X72.973 Y96.418 E2.68177
G1 X73.758 Y97.114 E2.71424
G1 X74.354 Y97.977 E2.74670
G1 X74.726 Y98.958 E2.77917
G1 X74.853 Y100.000 E2.81164
G1 X74.735 Y100.967 E2.84178
G1 X74.726 Y101.042 F7800.000
G1 E0.84178 F2400.00000
G92 E0
G1 X74.409 Y103.979 F7800.000
G1 E2.00000 F2400.00000
G1 F1800
G1 X74.409 Y109.400 E2.16773
G1 X67.947 Y109.400 E2.36768
G1 X67.256 Y108.990 E2.39255
G1 X65.914 Y108.542 E2.43632
G1 X64.593 Y108.400 E2.47741
G1 X63.108 Y108.400 E2.52338
G1 X63.108 Y91.600 E3.04320
G1 X64.593 Y91.600 E3.08916
G1 X65.914 Y91.458 E3.13026
G1 X67.256 Y91.010 E3.17403
G1 X67.947 Y90.600 E3.19890
G1 X74.409 Y90.600 E3.39885
G1 X74.409 Y96.021 E3.56658
G1 X73.688 Y95.382 E3.59639
G1 X72.490 Y94.753 E3.63824
G1 X71.176 Y94.429 E3.68010
G1 X69.824 Y94.429 E3.72196
G1 X68.510 Y94.753 E3.76381
G1 X67.312 Y95.382 E3.80567
G1 X66.300 Y96.279 E3.84753
G1 X65.531 Y97.392 E3.88939
G1 X65.051 Y98.660 E3.93133
G1 X64.890 Y100.016 E3.97359
G1 X65.052 Y101.343 E4.01495
G1 X65.531 Y102.608 E4.05680
G1 X66.300 Y103.721 E4.09866
G1 X67.314 Y104.620 E4.14060
G1 X68.526 Y105.251 E4.18286
G1 X69.824 Y105.571 E4.22422
G1 X71.176 Y105.571 E4.26608
G1 X72.490 Y105.247 E4.30793
G1 X73.688 Y104.618 E4.34979
G1 X74.353 Y104.029 E4.37728
G1 X75.034 Y102.602 F7800.000
G1 F1800
G1 X75.034 Y110.025 E4.60697
G1 X67.775 Y110.025 E4.83156
G1 X66.994 Y109.561 E4.85966
G1 X65.780 Y109.157 E4.89927
G1 X64.559 Y109.025 E4.93725
G1 X62.483 Y109.025 E5.00151
G1 X62.483 Y90.975 E5.56000
G1 X64.559 Y90.975 E5.62426
G1 X65.780 Y90.843 E5.66224
G1 X66.994 Y90.439 E5.70185
G1 X67.775 Y89.975 E5.72995
G1 X75.034 Y89.975 E5.95454
G1 X75.034 Y97.398 E6.18423
G1 X74.770 Y97.480 E6.19277
G1 X74.229 Y96.696 E6.22224
G1 X73.330 Y95.900 E6.25941
G1 X72.267 Y95.342 E6.29657
G1 X71.101 Y95.054 E6.33373
G1 X69.899 Y95.054 E6.37089
G1 X68.733 Y95.342 E6.40805
G1 X67.670 Y95.900 E6.44522
G1 X66.771 Y96.696 E6.48238
G1 X66.089 Y97.685 E6.51954
G1 X65.662 Y98.809 E6.55675
G1 X65.520 Y100.015 E6.59432
G1 X65.663 Y101.192 E6.63101
G1 X66.089 Y102.315 E6.66817
G1 X66.771 Y103.304 E6.70534
G1 X67.671 Y104.101 E6.74255
G1 X68.748 Y104.662 E6.78011
G1 X69.899 Y104.946 E6.81681
G1 X71.101 Y104.946 E6.85397
G1 X72.267 Y104.658 E6.89113
G1 X73.330 Y104.100 E6.92829
G1 X74.229 Y103.304 E6.96546
G1 X74.770 Y102.520 E6.99493
G1 X74.962 Y102.579 E7.00115
G1 E5.00115 F2400.00000
G92 E0
G1 X75.659 Y110.650 F7800.000
G1 E2.00000 F2400.00000
G1 F1800
G1 X67.604 Y110.650 E2.24923
G1 X66.733 Y110.133 E2.28057
G1 X65.646 Y109.771 E2.31602
G1 X64.526 Y109.650 E2.35087
G1 X61.858 Y109.650 E2.43343
G1 X61.858 Y90.350 E3.03060
G1 X64.526 Y90.350 E3.11315
G1 X65.646 Y90.229 E3.14801
G1 X66.733 Y89.867 E3.18346
G1 X67.604 Y89.350 E3.21479
G1 X75.659 Y89.350 E3.46402
G1 X75.659 Y110.575 E4.12075
G1 X75.199 Y110.454 F7800.000
G1 E2.12075 F2400.00000
G92 E0
G1 X73.541 Y109.018 F7800.000
G1 E2.00000 F2400.00000
G1 F1800
G1 X74.027 Y108.532 E2.02135
G1 X74.027 Y107.645 E2.04888
G1 X72.654 Y109.018 E2.10916
G1 X71.767 Y109.018 E2.13669
G1 X74.027 Y106.759 E2.23590
G1 X74.027 Y105.872 E2.26343
G1 X70.881 Y109.018 E2.40158
G1 X69.994 Y109.018 E2.42911
G1 X73.932 Y105.080 E2.60202
G1 X72.956 Y105.592 E2.63624
G1 X72.395 Y105.731 E2.65419
G1 X69.107 Y109.018 E2.79854
G1 X68.220 Y109.018 E2.82607
G1 X71.286 Y105.952 E2.96068
G1 X70.400 Y105.952 E2.98821
G1 X67.535 Y108.817 E3.11397
G1 X67.274 Y108.661 E3.12341
G1 X66.922 Y108.544 E3.13494
G1 X69.607 Y105.858 E3.25287
G1 X68.896 Y105.683 E3.27561
G1 X66.256 Y108.322 E3.39151
G1 X65.804 Y108.171 E3.40630
G1 X65.548 Y108.144 E3.41430
G1 X68.250 Y105.442 E3.53293
G1 X67.667 Y105.138 E3.55334
G1 X64.748 Y108.058 E3.68151
G1 X64.383 Y108.018 E3.69288
G1 X63.900 Y108.018 E3.70789
G1 X67.106 Y104.812 E3.84867
G1 X66.636 Y104.396 E3.86817
G1 X63.489 Y107.542 E4.00633
G1 X63.489 Y106.656 E4.03386
G1 X66.166 Y103.979 E4.15137
G1 X66.072 Y103.896 E4.15528
G1 X65.782 Y103.476 E4.17111
G1 X63.489 Y105.769 E4.27177
G1 X63.489 Y104.882 E4.29930
G1 X65.420 Y102.951 E4.38407
G1 X65.217 Y102.657 E4.39517
G1 X65.110 Y102.375 E4.40454
G1 X63.489 Y103.995 E4.47569
G1 X63.489 Y103.109 E4.50322
G1 X64.866 Y101.732 E4.56366
G1 X64.683 Y101.251 E4.57965
G1 X64.659 Y101.052 E4.58586
G1 X63.489 Y102.222 E4.63722
G1 X63.489 Y101.335 E4.66475
G1 X64.563 Y100.261 E4.71191
G1 X64.504 Y99.774 E4.72714
G1 X64.550 Y99.388 E4.73921
G1 X63.489 Y100.448 E4.78576
G1 X63.489 Y99.562 E4.81329
G1 X64.668 Y98.383 E4.86506
G1 X64.682 Y98.267 E4.86868
G1 X65.161 Y97.003 E4.91065
G1 X63.489 Y98.675 E4.98406
G1 X63.489 Y97.788 E5.01159
G1 X70.296 Y90.982 E5.31045
G1 X69.409 Y90.982 E5.33798
G1 X63.489 Y96.902 E5.59790
G1 X63.489 Y96.015 E5.62543
G1 X68.523 Y90.982 E5.84642
G1 X68.361 Y90.982 E5.85142
G1 X67.760 Y91.339 E5.87314
G1 X67.038 Y91.579 E5.89676
G1 X63.489 Y95.128 E6.05257
G1 X63.489 Y94.241 E6.08010
G1 X65.855 Y91.875 E6.18398
G1 X64.862 Y91.982 E6.21498
G1 X63.489 Y93.355 E6.27526
G1 X63.489 Y92.468 E6.30279
G1 X63.976 Y91.982 E6.32414
G1 E4.32414 F2400.00000
G92 E0
G1 X64.675 Y97.489 F7800.000
G1 E2.00000 F2400.00000
G1 F1800
G1 X64.731 Y97.343 E2.00486
G1 X65.586 Y96.104 E2.05157
G1 X66.712 Y95.107 E2.09828
G1 X67.440 Y94.725 E2.12380
G1 X71.183 Y90.982 E2.28815
G1 X72.069 Y90.982 E2.31568
G1 X68.840 Y94.211 E2.45749
G1 X69.505 Y94.048 E2.47876
G1 X69.890 Y94.048 E2.49073
G1 X72.956 Y90.982 E2.62534
G1 X73.843 Y90.982 E2.65287
G1 X70.777 Y94.048 E2.78748
G1 X71.009 Y94.048 E2.79469
G1 X71.534 Y94.177 E2.81148
G1 X74.027 Y91.684 E2.92093
G1 X74.027 Y92.571 E2.94846
G1 X72.246 Y94.352 E3.02667
G1 X72.470 Y94.408 E3.03384
G1 X72.868 Y94.617 E3.04780
G1 X74.027 Y93.458 E3.09868
G1 X74.027 Y94.344 E3.12621
G1 X73.450 Y94.922 E3.15156
G1 E1.15156 F2400.00000
G92 E0
G1 X74.985 Y97.741 F7800.000
G1 E2.00000 F2400.00000
G1 F1800
G1 X75.018 Y97.922 E2.00488
G1 F1800
G1 X75.084 Y98.283 E2.01291
G1 F1800
G1 X75.151 Y98.645 E2.01919
G1 F1800
G1 X75.188 Y98.864 E2.02195
G1 F1800
G1 X75.234 Y99.614 E2.02921
G1 F1800
G1 X75.256 Y100.011 E2.03126
G1 F1800
G1 X75.211 Y100.761 E2.03852
G1 F1800
G1 X75.184 Y101.175 E2.04365
G1 F1800
G1 X75.117 Y101.536 E2.04994
G1 F1800
G1 X75.051 Y101.898 E2.05796
G1 F1800
G1 X74.985 Y102.259 E2.06773
G1 Z0.350 F7800.000
G1 E0.06773 F2400.00000
G92 E0
G1 X86.252 Y112.137 F7800.000
G1 E2.00000 F2400.00000
G1 F1800
G1 X86.103 Y112.137 E2.00461
G1 X86.103 Y112.188 E2.00616
G1 X86.252 Y112.188 E2.01077
G1 X86.252 Y112.137 E2.01232
G1 X86.651 Y112.137 E2.02464
G1 X86.651 Y111.862 E2.03315
G1 X87.502 Y111.862 E2.05950
G1 X87.502 Y112.188 E2.06956
G1 E0.06956 F2400.00000
G92 E0
