; generated by Slic3r 1.3.0 on 2025-04-13 at 15:07:50

; external perimeters extrusion width = 0.55mm (4.37mm^3/s)
; perimeters extrusion width = 0.70mm (11.44mm^3/s)
; infill extrusion width = 0.63mm (13.45mm^3/s)
; solid infill extrusion width = 0.70mm (3.81mm^3/s)
; top infill extrusion width = 0.70mm (2.86mm^3/s)
; support material extrusion width = 0.55mm (8.74mm^3/s)

M107
M104 S200 ; set temperature
G28 ; home all axes
G1 Z5 F5000 ; lift nozzle

; Filament gcode

M109 S200 ; set temperature and wait for it to be reached
G21 ; set units to millimeters
G90 ; use absolute coordinates
M82 ; use absolute distances for extrusion
G92 E0
G1 Z0.350 F7800.000
G1 E-2.00000 F2400.00000
G92 E0
G1 X69.917 Y58.253 F7800.000
G1 E2.00000 F2400.00000
G1 F1800
G1 X71.670 Y56.774 E2.07096
G1 X73.822 Y55.981 E2.14192
G1 X75.002 Y55.875 E2.17858
G1 X100.002 Y55.875 E2.95211
G1 X102.260 Y56.272 E3.02307
G1 X104.249 Y57.415 E3.09403
G1 X105.739 Y59.188 E3.16568
G1 X127.377 Y96.665 E4.50468
G1 X128.279 Y98.346 E4.56369
G1 X128.476 Y98.747 E4.57753
G1 X129.170 Y100.288 E4.62981
G1 X129.928 Y102.285 E4.69593
G1 X130.546 Y104.316 E4.76161
G1 X130.663 Y104.763 E4.77590
G1 X131.032 Y106.412 E4.82819
G1 X131.372 Y108.522 E4.89430
G1 X131.569 Y110.650 E4.96043
G1 X131.592 Y111.097 E4.97428
G1 X131.622 Y112.787 E5.02657
G1 X131.531 Y114.921 E5.09268
G1 X131.295 Y117.045 E5.15880
G1 X131.228 Y117.488 E5.17266
G1 X130.819 Y119.586 E5.23878
G1 X130.397 Y121.222 E5.29106
G1 X129.743 Y123.241 E5.35672
G1 X129.583 Y123.675 E5.37103
G1 X128.944 Y125.239 E5.42332
G1 X128.018 Y127.165 E5.48944
G1 X126.963 Y129.023 E5.55555
G1 X126.727 Y129.403 E5.56941
G1 X125.786 Y130.806 E5.62168
G1 X124.490 Y132.506 E5.68781
G1 X124.205 Y132.851 E5.70166
G1 X122.775 Y134.439 E5.76778
G1 X121.241 Y135.927 E5.83391
G1 X119.959 Y137.028 E5.88618
G1 X118.257 Y138.320 E5.95231
G1 X116.484 Y139.486 E6.01797
G1 X116.088 Y139.725 E6.03228
G1 X114.610 Y140.545 E6.08458
G1 X112.683 Y141.468 E6.15068
G1 X110.711 Y142.253 E6.21635
G1 X110.275 Y142.407 E6.23066
G1 X108.662 Y142.913 E6.28298
G1 X106.589 Y143.428 E6.34907
G1 X104.485 Y143.802 E6.41518
G1 X104.042 Y143.863 E6.42903
G1 X101.915 Y144.064 E6.49514
G1 X100.225 Y144.121 E6.54743
G1 X98.069 Y144.063 E6.61417
G1 X97.618 Y144.032 E6.62817
G1 X95.472 Y143.796 E6.69498
G1 X93.790 Y143.506 E6.74779
G1 X91.688 Y143.009 E6.81460
G1 X89.625 Y142.371 E6.88142
G1 X87.625 Y141.599 E6.94777
G1 X87.196 Y141.413 E6.96222
G1 X85.655 Y140.680 E7.01504
G1 X83.765 Y139.635 E7.08184
G1 X83.379 Y139.400 E7.09584
G1 X81.582 Y138.203 E7.16265
G1 X79.871 Y136.886 E7.22946
G1 X78.584 Y135.764 E7.28228
G1 X78.253 Y135.455 E7.29627
G1 X76.737 Y133.918 E7.36308
G1 X75.616 Y132.631 E7.41590
G1 X74.299 Y130.920 E7.48271
G1 X74.038 Y130.550 E7.49671
G1 X72.866 Y128.737 E7.56351
G1 X71.822 Y126.847 E7.63032
G1 X70.908 Y124.890 E7.69713
G1 X70.282 Y123.302 E7.74995
G1 X69.614 Y121.249 E7.81676
G1 X69.088 Y119.155 E7.88357
G1 X68.996 Y118.712 E7.89756
G1 X68.644 Y116.582 E7.96436
G1 X68.439 Y114.433 E8.03117
G1 X68.377 Y112.500 E8.09100
G1 X68.377 Y62.500 E9.63806
G1 X68.774 Y60.241 E9.70903
G1 X69.880 Y58.318 E9.77767
G1 E7.77767 F2400.00000
G92 E0
G1 X112.373 Y132.350 F7800.000
G1 E2.00000 F2400.00000
G1 F1800
G1 X112.160 Y132.156 E2.00892
G1 X112.829 Y130.858 E2.05411
G1 X113.328 Y129.612 E2.09563
G1 X113.706 Y128.325 E2.13715
G1 X113.960 Y127.007 E2.17867
G1 X114.087 Y125.671 E2.22019
G1 X114.087 Y124.329 E2.26172
G1 X113.960 Y122.993 E2.30324
G1 X113.706 Y121.675 E2.34476
G1 X113.328 Y120.388 E2.38628
G1 X112.829 Y119.142 E2.42780
G1 X112.214 Y117.949 E2.46933
G1 X111.488 Y116.820 E2.51085
G1 X110.659 Y115.765 E2.55237
G1 X109.733 Y114.794 E2.59389
G1 X108.719 Y113.915 E2.63541
G1 X107.626 Y113.137 E2.67694
G1 X106.463 Y112.466 E2.71846
G1 X105.243 Y111.909 E2.75998
G1 X103.974 Y111.470 E2.80150
G1 X102.670 Y111.153 E2.84302
G1 X101.601 Y111.000 E2.87644
G1 X101.601 Y92.024 E3.46356
G1 X101.540 Y91.157 E3.49047
G1 X101.347 Y90.251 E3.51912
G1 X101.029 Y89.382 E3.54777
G1 X100.592 Y88.565 E3.57642
G1 X100.045 Y87.818 E3.60507
G1 X99.399 Y87.154 E3.63372
G1 X98.667 Y86.587 E3.66238
G1 X97.863 Y86.129 E3.69103
G1 X97.002 Y85.787 E3.71968
G1 X96.183 Y85.589 E3.74576
G1 X94.570 Y85.260 E3.79670
G1 X93.062 Y84.847 E3.84507
G1 X91.585 Y84.333 E3.89344
G1 X90.146 Y83.723 E3.94182
G1 X88.751 Y83.017 E3.99019
G1 X87.406 Y82.220 E4.03856
G1 X86.117 Y81.335 E4.08694
G1 X84.891 Y80.366 E4.13531
G1 X83.731 Y79.317 E4.18368
G1 X82.645 Y78.193 E4.23206
G1 X81.635 Y76.999 E4.28043
G1 X80.708 Y75.740 E4.32880
G1 X79.867 Y74.422 E4.37718
G1 X79.116 Y73.051 E4.42554
G1 X78.453 Y71.620 E4.47436
G1 X77.896 Y70.174 E4.52230
G1 X77.433 Y68.681 E4.57067
G1 X77.071 Y67.160 E4.61904
G1 X76.811 Y65.618 E4.66742
G1 X76.658 Y64.100 E4.71463
G1 X98.402 Y64.100 E5.38741
G1 X98.402 Y82.976 E5.97146
G1 X98.463 Y83.843 E5.99836
G1 X98.656 Y84.749 E6.02702
G1 X98.975 Y85.618 E6.05567
G1 X99.411 Y86.435 E6.08432
G1 X99.958 Y87.182 E6.11297
G1 X100.604 Y87.846 E6.14162
G1 X101.336 Y88.413 E6.17027
G1 X102.140 Y88.871 E6.19892
G1 X103.001 Y89.213 E6.22757
G1 X103.820 Y89.411 E6.25364
G1 X105.451 Y89.744 E6.30515
G1 X106.976 Y90.164 E6.35408
G1 X108.468 Y90.686 E6.40300
G1 X109.922 Y91.308 E6.45193
G1 X111.331 Y92.026 E6.50086
G1 X112.688 Y92.838 E6.54979
G1 X113.987 Y93.740 E6.59872
G1 X115.211 Y94.719 E6.64721
G1 X116.388 Y95.796 E6.69659
G1 X117.479 Y96.941 E6.74551
G1 X118.490 Y98.157 E6.79444
G1 X119.408 Y99.427 E6.84292
G1 X120.254 Y100.780 E6.89231
G1 X120.999 Y102.174 E6.94122
G1 X121.649 Y103.616 E6.99015
G1 X122.199 Y105.098 E7.03908
G1 X122.649 Y106.615 E7.08801
G1 X122.995 Y108.158 E7.13694
G1 X123.235 Y109.721 E7.18587
G1 X123.370 Y111.296 E7.23480
G1 X123.398 Y112.877 E7.28373
G1 X123.319 Y114.457 E7.33266
G1 X123.134 Y116.027 E7.38159
G1 X122.842 Y117.582 E7.43052
G1 X122.447 Y119.113 E7.47945
G1 X121.954 Y120.600 E7.52793
G1 X121.351 Y122.078 E7.57732
G1 X120.655 Y123.498 E7.62623
G1 X119.865 Y124.868 E7.67516
G1 X118.985 Y126.181 E7.72409
G1 X118.017 Y127.432 E7.77302
G1 X116.968 Y128.615 E7.82195
G1 X115.851 Y129.714 E7.87044
G1 X114.641 Y130.754 E7.91982
G1 X113.375 Y131.701 E7.96874
G1 X112.436 Y132.309 E8.00333
G1 E6.00333 F2400.00000
G92 E0
G1 X110.046 Y133.972 F7800.000
G1 E2.00000 F2400.00000
G1 F1800
G1 X110.186 Y133.825 E2.00627
G1 X110.979 Y132.817 E2.04595
G1 X111.672 Y131.738 E2.08563
G1 X112.260 Y130.598 E2.12531
G1 X112.736 Y129.408 E2.16499
G1 X113.098 Y128.177 E2.20467
G1 X113.340 Y126.918 E2.24435
G1 X113.462 Y125.641 E2.28403
G1 X113.462 Y124.359 E2.32371
G1 X113.340 Y123.082 E2.36339
G1 X113.098 Y121.823 E2.40307
G1 X112.736 Y120.592 E2.44275
G1 X112.260 Y119.402 E2.48243
G1 X111.672 Y118.262 E2.52211
G1 X110.979 Y117.183 E2.56179
G1 X110.186 Y116.175 E2.60147
G1 X109.301 Y115.247 E2.64115
G1 X108.332 Y114.407 E2.68083
G1 X107.287 Y113.663 E2.72051
G1 X106.177 Y113.022 E2.76019
G1 X105.010 Y112.489 E2.79987
G1 X103.798 Y112.070 E2.83955
G1 X102.552 Y111.768 E2.87923
G1 X101.283 Y111.585 E2.91891
G1 X100.977 Y111.570 E2.92839
G1 X100.977 Y92.046 E3.53250
G1 X100.920 Y91.244 E3.55737
G1 X100.745 Y90.425 E3.58330
G1 X100.457 Y89.638 E3.60923
G1 X100.062 Y88.899 E3.63517
G1 X99.567 Y88.222 E3.66110
G1 X98.982 Y87.621 E3.68703
G1 X98.319 Y87.108 E3.71296
G1 X97.591 Y86.693 E3.73890
G1 X96.812 Y86.384 E3.76483
G1 X96.047 Y86.199 E3.78920
G1 X94.425 Y85.868 E3.84043
G1 X92.877 Y85.444 E3.89009
G1 X91.360 Y84.917 E3.93976
G1 X89.883 Y84.290 E3.98943
G1 X88.450 Y83.565 E4.03909
G1 X87.069 Y82.747 E4.08876
G1 X85.746 Y81.838 E4.13842
G1 X84.487 Y80.843 E4.18809
G1 X83.297 Y79.766 E4.23776
G1 X82.181 Y78.612 E4.28742
G1 X81.145 Y77.386 E4.33709
G1 X80.193 Y76.094 E4.38675
G1 X79.329 Y74.741 E4.43642
G1 X78.558 Y73.333 E4.48608
G1 X77.877 Y71.863 E4.53619
G1 X77.306 Y70.379 E4.58542
G1 X76.830 Y68.846 E4.63508
G1 X76.458 Y67.284 E4.68475
G1 X76.191 Y65.701 E4.73441
G1 X76.031 Y64.104 E4.78408
G1 X76.010 Y63.475 E4.80357
G1 X99.027 Y63.475 E5.51574
G1 X99.027 Y82.954 E6.11845
G1 X99.083 Y83.756 E6.14332
G1 X99.258 Y84.575 E6.16925
G1 X99.546 Y85.362 E6.19519
G1 X99.942 Y86.101 E6.22112
G1 X100.436 Y86.778 E6.24705
G1 X101.021 Y87.379 E6.27299
G1 X101.684 Y87.892 E6.29892
G1 X102.412 Y88.307 E6.32485
G1 X103.191 Y88.616 E6.35078
G1 X103.956 Y88.801 E6.37515
G1 X105.597 Y89.136 E6.42695
G1 X107.162 Y89.567 E6.47719
G1 X108.694 Y90.103 E6.52742
G1 X110.187 Y90.742 E6.57766
G1 X111.634 Y91.479 E6.62790
G1 X113.027 Y92.313 E6.67813
G1 X114.361 Y93.239 E6.72837
G1 X115.618 Y94.244 E6.77816
G1 X116.826 Y95.350 E6.82885
G1 X117.946 Y96.525 E6.87908
G1 X118.984 Y97.774 E6.92932
G1 X119.926 Y99.078 E6.97910
G1 X120.795 Y100.467 E7.02980
G1 X121.560 Y101.898 E7.08003
G1 X122.227 Y103.379 E7.13026
G1 X122.793 Y104.901 E7.18050
G1 X123.254 Y106.457 E7.23074
G1 X123.609 Y108.042 E7.28097
G1 X123.856 Y109.646 E7.33121
G1 X123.994 Y111.264 E7.38145
G1 X124.023 Y112.887 E7.43168
G1 X123.942 Y114.509 E7.48192
G1 X123.752 Y116.121 E7.53216
G1 X123.453 Y117.717 E7.58239
G1 X123.047 Y119.289 E7.63263
G1 X122.540 Y120.817 E7.68242
G1 X121.921 Y122.334 E7.73311
G1 X121.207 Y123.792 E7.78334
G1 X120.396 Y125.198 E7.83357
G1 X119.492 Y126.547 E7.88381
G1 X118.499 Y127.831 E7.93405
G1 X117.421 Y129.045 E7.98428
G1 X116.274 Y130.174 E8.03407
G1 X115.032 Y131.242 E8.08477
G1 X113.732 Y132.214 E8.13499
G1 X112.369 Y133.097 E8.18523
G1 X110.950 Y133.885 E8.23547
G1 X110.228 Y134.224 E8.26013
G1 X110.090 Y134.032 E8.26744
G1 E6.26744 F2400.00000
G92 E0
G1 X106.953 Y135.807 F7800.000
G1 E2.00000 F2400.00000
G1 F1800
G1 X107.945 Y135.101 E2.03767
G1 X108.869 Y134.300 E2.07551
G1 X109.713 Y133.415 E2.11335
G1 X110.469 Y132.454 E2.15119
G1 X111.130 Y131.425 E2.18903
G1 X111.691 Y130.338 E2.22686
G1 X112.145 Y129.203 E2.26470
G1 X112.490 Y128.030 E2.30254
G1 X112.721 Y126.829 E2.34038
G1 X112.837 Y125.611 E2.37822
G1 X112.837 Y124.389 E2.41605
G1 X112.721 Y123.171 E2.45389
G1 X112.490 Y121.970 E2.49173
G1 X112.145 Y120.797 E2.52957
G1 X111.691 Y119.662 E2.56741
G1 X111.130 Y118.575 E2.60524
G1 X110.469 Y117.546 E2.64308
G1 X109.713 Y116.585 E2.68092
G1 X108.869 Y115.700 E2.71876
G1 X107.945 Y114.899 E2.75660
G1 X106.949 Y114.190 E2.79443
G1 X105.890 Y113.578 E2.83227
G1 X104.778 Y113.070 E2.87011
G1 X103.622 Y112.670 E2.90795
G1 X102.434 Y112.382 E2.94578
G1 X101.223 Y112.208 E2.98362
G1 X100.352 Y112.166 E3.01062
G1 X100.352 Y92.068 E3.63248
G1 X100.300 Y91.332 E3.65532
G1 X100.143 Y90.598 E3.67853
G1 X99.885 Y89.894 E3.70175
G1 X99.531 Y89.232 E3.72496
G1 X99.088 Y88.626 E3.74818
G1 X98.565 Y88.089 E3.77139
G1 X97.972 Y87.630 E3.79461
G1 X97.320 Y87.258 E3.81782
G1 X96.623 Y86.981 E3.84104
G1 X95.911 Y86.809 E3.86369
G1 X94.279 Y86.476 E3.91521
G1 X92.691 Y86.041 E3.96617
G1 X91.136 Y85.500 E4.01713
G1 X89.619 Y84.857 E4.06809
G1 X88.150 Y84.114 E4.11904
G1 X86.733 Y83.274 E4.17000
G1 X85.375 Y82.341 E4.22096
G1 X84.083 Y81.321 E4.27192
G1 X82.862 Y80.216 E4.32288
G1 X81.717 Y79.031 E4.37384
G1 X80.654 Y77.774 E4.42480
G1 X79.677 Y76.448 E4.47576
G1 X78.791 Y75.059 E4.52671
G1 X78.000 Y73.615 E4.57767
G1 X77.302 Y72.107 E4.62908
G1 X76.715 Y70.584 E4.67959
G1 X76.227 Y69.011 E4.73055
G1 X75.846 Y67.409 E4.78151
G1 X75.572 Y65.785 E4.83246
G1 X75.407 Y64.146 E4.88342
G1 X75.364 Y62.850 E4.92355
G1 X99.652 Y62.850 E5.67505
G1 X99.652 Y82.932 E6.29641
G1 X99.703 Y83.668 E6.31925
G1 X99.860 Y84.402 E6.34246
G1 X100.118 Y85.106 E6.36568
G1 X100.472 Y85.768 E6.38889
G1 X100.915 Y86.374 E6.41211
G1 X101.438 Y86.911 E6.43532
G1 X102.031 Y87.370 E6.45854
G1 X102.683 Y87.742 E6.48175
G1 X103.381 Y88.019 E6.50497
G1 X104.092 Y88.191 E6.52762
G1 X105.742 Y88.528 E6.57973
G1 X107.348 Y88.970 E6.63127
G1 X108.921 Y89.520 E6.68281
G1 X110.452 Y90.175 E6.73436
G1 X111.936 Y90.932 E6.78590
G1 X113.366 Y91.787 E6.83745
G1 X114.734 Y92.737 E6.88899
G1 X116.024 Y93.768 E6.94008
G1 X117.264 Y94.903 E6.99208
G1 X118.413 Y96.109 E7.04362
G1 X119.478 Y97.390 E7.09517
G1 X120.445 Y98.729 E7.14626
G1 X121.336 Y100.153 E7.19826
G1 X122.122 Y101.622 E7.24980
G1 X122.806 Y103.141 E7.30134
G1 X123.386 Y104.703 E7.35288
G1 X123.859 Y106.300 E7.40443
G1 X124.223 Y107.926 E7.45597
G1 X124.477 Y109.572 E7.50752
G1 X124.619 Y111.232 E7.55906
G1 X124.648 Y112.898 E7.61061
G1 X124.565 Y114.561 E7.66215
G1 X124.370 Y116.216 E7.71369
G1 X124.063 Y117.853 E7.76524
G1 X123.647 Y119.466 E7.81678
G1 X123.127 Y121.033 E7.86787
G1 X122.492 Y122.589 E7.91987
G1 X121.759 Y124.085 E7.97141
G1 X120.927 Y125.528 E8.02296
G1 X119.999 Y126.912 E8.07450
G1 X118.980 Y128.230 E8.12605
G1 X117.874 Y129.476 E8.17759
G1 X116.697 Y130.634 E8.22868
G1 X115.423 Y131.730 E8.28068
G1 X114.089 Y132.727 E8.33222
G1 X112.691 Y133.633 E8.38377
G1 X111.235 Y134.442 E8.43531
G1 X109.727 Y135.150 E8.48685
G1 X108.175 Y135.755 E8.53840
G1 X107.096 Y136.094 E8.57339
G1 X106.987 Y135.875 E8.58097
G1 X107.409 Y135.600 F7800.000
G1 X106.706 Y136.095 F7800.000
G1 F1800
G1 X106.172 Y136.309 E8.60248
G1 F1800
G1 X105.874 Y136.427 E8.61315
G1 F1800
G1 X105.429 Y136.581 E8.62763
G1 F1800
G1 X104.984 Y136.735 E8.64001
G1 F1800
G1 X104.741 Y136.810 E8.64557
G1 F1800
G1 X104.431 Y136.890 E8.65152
G1 F1800
G1 X103.853 Y137.038 E8.66104
G1 F1800
G1 X103.553 Y137.115 E8.66448
G1 F1800
G1 X102.779 Y137.254 E8.67125
G1 E6.67125 F2400.00000
G92 E0
G1 X108.131 Y135.400 F7800.000
G1 E2.00000 F2400.00000
G1 F1800
G1 X108.253 Y135.326 E2.00035
G1 F1800
G1 X108.484 Y135.187 E2.00216
G1 F1800
G1 X108.704 Y135.054 E2.00500
G1 F1800
G1 X108.924 Y134.921 E2.00894
G1 F1800
G1 X109.144 Y134.788 E2.01400
G1 F1800
G1 X109.904 Y134.308 E2.03408
G1 X110.855 Y133.560 F7800.000
G1 F1800
G1 X112.057 Y132.485 E2.05566
G1 X112.829 Y131.683 F7800.000
G1 F1800
G1 X113.648 Y130.666 E2.07976
G1 E0.07976 F2400.00000
G92 E0
G1 X116.262 Y128.436 F7800.000
G1 E2.00000 F2400.00000
G1 F1800
G1 X116.758 Y127.940 E2.02182
G1 X117.779 Y126.790 E2.06964
G1 X118.721 Y125.572 E2.11752
G1 X119.662 Y124.148 E2.17064
G1 X113.626 Y130.184 E2.43615
G1 X114.014 Y128.907 E2.47765
G1 X120.717 Y122.204 E2.77251
G1 X121.023 Y121.579 E2.79416
G1 X121.416 Y120.617 E2.82648
G1 X114.250 Y127.783 E3.14168
G1 X114.336 Y127.339 E3.15574
G1 X114.392 Y126.753 E3.17405
G1 X121.911 Y119.233 E3.50482
G1 X122.090 Y118.693 E3.52254
G1 X122.274 Y117.982 E3.54537
G1 X114.469 Y125.787 E3.88870
G1 X114.469 Y124.899 E3.91634
G1 X122.547 Y116.821 E4.27167
G1 X122.751 Y115.728 E4.30626
G1 X114.423 Y124.057 E4.67264
G1 X114.345 Y123.246 E4.69798
G1 X122.873 Y114.718 E5.07313
G1 X122.939 Y114.161 E5.09055
G1 X122.960 Y113.743 E5.10359
G1 X114.210 Y122.493 E5.48851
G1 X114.064 Y121.750 E5.51206
G1 X123.007 Y112.807 E5.90543
G1 X123.003 Y111.922 E5.93296
G1 X113.863 Y121.063 E6.33506
G1 X113.657 Y120.380 E6.35724
G1 X122.986 Y111.052 E6.76759
G1 X122.916 Y110.233 E6.79315
G1 X113.403 Y119.746 E7.21160
G1 X113.148 Y119.112 E7.23284
G1 X122.838 Y109.423 E7.65907
G1 X122.719 Y108.653 E7.68330
G1 X112.846 Y118.526 E8.11761
G1 X112.544 Y117.940 E8.13812
G1 X122.592 Y107.892 E8.58014
G1 X122.429 Y107.166 E8.60328
G1 X112.201 Y117.394 E9.05322
G1 X111.853 Y116.853 E9.07322
G1 X122.262 Y106.445 E9.53109
G1 X122.059 Y105.760 E9.55332
G1 X111.475 Y116.344 E10.01892
G1 X111.083 Y115.846 E10.03860
G1 X121.856 Y105.074 E10.51246
G1 X121.849 Y105.053 E10.51315
G1 X121.616 Y104.425 E10.53398
G1 X110.671 Y115.371 E11.01546
G1 X110.237 Y114.916 E11.03500
G1 X121.376 Y103.778 E11.52497
G1 X121.109 Y103.156 E11.54601
G1 X109.792 Y114.472 E12.04382
G1 X109.316 Y114.060 E12.06341
G1 X120.833 Y102.543 E12.57003
G1 X120.542 Y101.946 E12.59070
G1 X108.838 Y113.650 E13.10553
G1 X108.319 Y113.280 E13.12535
G1 X120.232 Y101.367 E13.64940
G1 X119.919 Y100.792 E13.66977
G1 X107.800 Y112.911 E14.20289
G1 X107.244 Y112.579 E14.22304
G1 X119.578 Y100.245 E14.76559
G1 X119.236 Y99.698 E14.78564
G1 X106.681 Y112.253 E15.33793
G1 X106.507 Y112.153 E15.34417
G1 X106.085 Y111.960 E15.35859
G1 X118.872 Y99.174 E15.92109
G1 X118.499 Y98.658 E15.94088
G1 X105.475 Y111.682 E16.51380
G1 X105.232 Y111.571 E16.52212
G1 X104.835 Y111.433 E16.53518
